templates/main/source/images/small/hit.svg

<?xml version="1.0" encoding="utf-8"?>
<svg width="24px" height="24px" viewBox="0 0 24 24" version="1.1" xmlns:xlink="http://www.w3.org/1999/xlink" xmlns="http://www.w3.org/2000/svg">
  <desc>Created with Lunacy</desc>
  <g id="hit_miele-_1_">
    <path d="M11.2941 0C17.5317 3.13475e-16 22.5882 5.05655 22.5882 11.2941C22.5882 17.5317 17.5317 22.5882 11.2941 22.5882C5.05655 22.5882 7.83687e-16 17.5317 0 11.2941C-7.83687e-16 5.05655 5.05655 1.09716e-15 11.2941 0Z" transform="translate(0.7058716 0.70581055)" id="Path" fill="#FFFFFF" stroke="none" />
    <path d="M0 12C0 18.6274 5.37258 24 12 24C15.1826 24 18.2348 22.7357 20.4853 20.4853C22.7357 18.2348 24 15.1826 24 12C24 5.37258 18.6274 0 12 0C5.37258 0 0 5.37258 0 12ZM1.41176 12C1.41176 6.15228 6.15228 1.41176 12 1.41176C14.8082 1.41176 17.5013 2.52731 19.487 4.51299C21.4727 6.49867 22.5882 9.19183 22.5882 12C22.5882 17.8477 17.8477 22.5882 12 22.5882C6.15228 22.5882 1.41176 17.8477 1.41176 12Z" id="Shape" fill="#8C0014" fill-rule="evenodd" stroke="none" />
    <path d="M8.68779 5.40076C9.19948 5.36957 9.70397 5.53353 10.0996 5.85958L10.1419 5.92311C10.6501 6.39606 10.6501 7.29958 10.6501 7.89959C10.7215 8.66566 10.5405 9.43407 10.1348 10.0878C9.83397 10.4036 9.40405 10.5625 8.97014 10.5184L8.08779 10.5184C7.97595 10.5417 7.8628 10.5582 7.74897 10.5678L7.43132 10.6102C7.28443 10.6674 7.15362 10.7595 7.05014 10.8784C6.98494 10.9477 6.91411 11.0114 6.83838 11.069L6.62661 11.2243C6.40843 11.3981 6.1717 11.5472 5.92073 11.669C5.59854 11.7899 5.26127 11.8659 4.91838 11.8949C4.75603 11.9161 4.59367 11.9372 4.43838 11.9725L4.15603 11.9725C3.88716 12.0118 3.61596 12.033 3.34426 12.0361C3.17859 12.0375 3.01315 12.0233 2.85014 11.9937C2.33686 11.8655 1.97446 11.4074 1.96779 10.8784C1.66025 10.7604 1.40829 10.5311 1.26191 10.2361C1.10668 9.97758 1.0538 9.67038 1.11367 9.37488C0.597403 9.0409 0.339428 8.42401 0.464261 7.82194C0.223047 7.639 0.0653731 7.36689 0.026614 7.06664C-0.060246 6.62551 0.0682032 6.16939 0.372496 5.83841C0.773453 5.51196 1.26791 5.32159 1.78426 5.29488L1.98191 5.28782L2.1725 5.23841C2.79367 5.09017 3.23838 4.949 3.23838 4.4337C3.2181 4.09181 3.14179 3.75556 3.0125 3.43841C2.84643 3.04518 2.76006 2.62291 2.75838 2.19606C2.76258 1.44965 3.10211 0.744675 3.68308 0.276055C3.89791 0.104053 4.16326 0.00733557 4.43838 0.000760953C4.81813 -0.0156107 5.1584 0.233722 5.2572 0.600761C5.32518 0.853647 5.34434 1.11717 5.31367 1.37723L5.31367 1.58194C5.29579 1.91337 5.34625 2.24494 5.46191 2.55606C5.68395 3.10539 5.99652 3.61361 6.38661 4.05958L6.57014 4.28547C6.80914 4.61372 7.07601 4.92074 7.36779 5.20311C7.514 5.30815 7.68359 5.37599 7.86191 5.40076C7.91121 5.39612 7.96084 5.39612 8.01014 5.40076L8.68779 5.40076ZM8.3772 9.13488C8.30932 9.53119 7.95246 9.8118 7.55132 9.78429C7.3744 9.76996 7.19728 9.80932 7.04308 9.89723C6.86425 9.96361 6.70433 10.0727 6.5772 10.2149C6.53139 10.2634 6.48182 10.3083 6.42897 10.349L6.23132 10.4972C6.04908 10.6515 5.85295 10.7885 5.64544 10.9066L5.27132 10.9913L5.02426 11.0478C4.50797 11.1387 3.98725 11.2023 3.46426 11.2384C3.28908 11.2451 3.11372 11.2309 2.94191 11.1961C2.8511 11.1853 2.77035 11.1332 2.72308 11.0549C2.66218 10.9277 2.66218 10.7797 2.72308 10.6525C2.76958 10.5617 2.76958 10.454 2.72308 10.3631C2.63274 10.2436 2.49175 10.1731 2.34191 10.1725L2.26426 10.1725C2.15838 10.1725 2.0525 10.0808 1.97485 9.93253C1.88264 9.77628 1.86704 9.58643 1.9325 9.41723C2.0144 9.31476 2.02823 9.17366 1.96779 9.05723C1.929 8.95024 1.83362 8.87394 1.72073 8.85958C1.49534 8.79274 1.31802 8.61806 1.24779 8.3937C1.19277 8.22716 1.21071 8.04512 1.2972 7.89253C1.3759 7.76574 1.39402 7.61049 1.34661 7.469C1.29941 7.36276 1.2055 7.2845 1.0925 7.25723C0.904911 7.21969 0.77113 7.05321 0.774849 6.86194C0.764716 6.60038 0.91604 6.35938 1.15603 6.25488C1.48341 6.11458 1.83153 6.02874 2.18661 6.00076C2.38618 5.97401 2.58413 5.93631 2.77955 5.88782C3.41207 5.74387 3.88639 5.21873 3.96544 4.57488C3.96917 4.14432 3.8876 3.71728 3.72544 3.31841C3.5988 3.0025 3.52028 2.66938 3.4925 2.33017C3.49438 1.97275 3.58407 1.62127 3.75367 1.30664C3.92308 1.03841 4.20544 0.756055 4.45955 0.756055L4.49485 0.756055C4.63603 0.756055 4.62897 1.04547 4.61485 1.29253L4.61485 1.35606C4.57233 1.72732 4.58183 2.10271 4.64308 2.47135C4.78784 2.98201 5.02729 3.46091 5.34897 3.88311L5.53956 4.16547C5.84865 4.61194 6.18829 5.03649 6.55603 5.43605C6.62535 5.53252 6.70861 5.61816 6.80308 5.69017C6.82047 5.73 6.85375 5.76073 6.89485 5.77488C7.13249 5.96041 7.41499 6.07974 7.71367 6.12076C7.94661 6.17017 8.15132 6.20547 8.25014 6.38194C8.42266 6.78453 8.49531 7.22286 8.46191 7.65958L8.46191 7.75135C8.48525 8.20883 8.44486 8.66734 8.34191 9.1137L8.3772 9.13488ZM9.88073 7.88547L9.88073 7.72311L9.9372 7.709L9.93721 7.68011C9.93737 7.25709 9.93759 6.64446 9.64779 6.39606C9.46698 6.25625 9.2478 6.17498 9.01956 6.16311C9.13093 6.40364 9.20017 6.66151 9.22426 6.92547C9.29509 7.51865 9.29509 8.11816 9.22426 8.71135C9.19836 9.06676 9.11244 9.41522 8.97014 9.74194C9.24544 9.74194 9.45014 9.72782 9.54897 9.57253C9.81796 9.05324 9.93306 8.46794 9.88073 7.88547Z" transform="translate(6.6863403 5.293457)" id="Shape" fill="#8C0014" fill-rule="evenodd" stroke="none" />
  </g>
</svg>

<svg width="24" height="24" viewBox="0 0 24 24" xmlns:xlink="http://www.w3.org/1999/xlink" xmlns="http://www.w3.org/2000/svg"><g id="hit_miele-_1_" stroke="none"><path d="M11.294 0c6.238 0 11.294 5.057 11.294 11.294 0 6.238-5.056 11.294-11.294 11.294C5.057 22.588 0 17.532 0 11.294 0 5.057 5.057 0 11.294 0z" transform="translate(.706 .706)" id="Path" fill="#FFF"/><path d="M0 12c0 6.627 5.373 12 12 12a12 12 0 0012-12c0-6.627-5.373-12-12-12S0 5.373 0 12zm1.412 0C1.412 6.152 6.152 1.412 12 1.412A10.588 10.588 0 0122.588 12c0 5.848-4.74 10.588-10.588 10.588-5.848 0-10.588-4.74-10.588-10.588z" id="Shape" fill="#8C0014" fill-rule="evenodd"/><path d="M8.688 5.4a2.026 2.026 0 011.412.46l.042.063c.508.473.508 1.377.508 1.977a3.529 3.529 0 01-.515 2.188 1.408 1.408 0 01-1.165.43h-.882a2.77 2.77 0 01-.339.05l-.318.042a.974.974 0 00-.38.268 1.75 1.75 0 01-.213.191l-.211.155a3.786 3.786 0 01-.706.445 3.79 3.79 0 01-1.003.226c-.162.021-.324.042-.48.078h-.282c-.269.039-.54.06-.812.063a2.64 2.64 0 01-.494-.042 1.165 1.165 0 01-.882-1.116 1.313 1.313 0 01-.706-.642 1.207 1.207 0 01-.148-.861 1.49 1.49 0 01-.65-1.553 1.13 1.13 0 01-.437-.755 1.412 1.412 0 01.345-1.229 2.435 2.435 0 011.412-.543l.198-.007.19-.05c.622-.148 1.066-.289 1.066-.804a3.127 3.127 0 00-.225-.996 3.226 3.226 0 01-.255-1.242 2.485 2.485 0 01.925-1.92c.215-.172.48-.269.755-.275.38-.017.72.233.82.6.067.253.086.516.056.776v.205c-.018.331.032.663.148.974.222.55.535 1.058.925 1.504l.183.225c.24.329.506.636.798.918.146.105.316.173.494.198a.791.791 0 01.148 0h.678zm-.31 3.735a.784.784 0 01-.827.65.882.882 0 00-.508.112 1.172 1.172 0 00-.466.318 1.27 1.27 0 01-.148.134l-.198.148a3.866 3.866 0 01-.586.41l-.374.084-.247.057a15.13 15.13 0 01-1.56.19 2.207 2.207 0 01-.522-.042.297.297 0 01-.219-.141.466.466 0 010-.402.318.318 0 000-.29.48.48 0 00-.381-.19h-.078c-.106 0-.211-.092-.29-.24a.593.593 0 01-.041-.516.332.332 0 00.035-.36.304.304 0 00-.247-.197.706.706 0 01-.473-.466.621.621 0 01.05-.501.501.501 0 00.049-.424.374.374 0 00-.254-.212.395.395 0 01-.318-.395.635.635 0 01.381-.607c.327-.14.676-.226 1.03-.254.2-.027.398-.065.594-.113a1.539 1.539 0 001.185-1.313 3.261 3.261 0 00-.24-1.257 3.402 3.402 0 01-.232-.988c.001-.357.091-.709.26-1.023.17-.269.452-.55.707-.55h.035c.141 0 .134.288.12.536v.063c-.043.371-.033.747.028 1.115.145.511.384.99.706 1.412l.19.282c.31.447.65.871 1.017 1.271a1.2 1.2 0 00.247.254c.017.04.05.07.092.085.237.185.52.305.819.346.233.05.437.084.536.26.173.404.245.842.212 1.279v.091c.023.458-.017.916-.12 1.363l.035.02zm1.503-1.25v-.162l.056-.014V7.68c0-.423 0-1.036-.29-1.284a1.12 1.12 0 00-.627-.233c.11.24.18.499.204.762a7.514 7.514 0 010 1.786 3.155 3.155 0 01-.254 1.03c.275 0 .48-.013.579-.168a3.07 3.07 0 00.332-1.688z" transform="translate(6.686 5.293)" id="Shape" fill="#8C0014" fill-rule="evenodd"/></g></svg>
